svg/material-icons/view_agenda/materialiconsoutlined/20px.svg

<svg xmlns="http://www.w3.org/2000/svg" width="20" height="20" viewBox="0 0 20 20"><path d="M15.5 3h-11C3.67 3 3 3.67 3 4.5v3C3 8.33 3.67 9 4.5 9h11c.83 0 1.5-.67 1.5-1.5v-3c0-.83-.67-1.5-1.5-1.5zm0 4.5h-11v-3h11v3zm0 3.5h-11c-.83 0-1.5.67-1.5 1.5v3c0 .83.67 1.5 1.5 1.5h11c.83 0 1.5-.67 1.5-1.5v-3c0-.83-.67-1.5-1.5-1.5zm0 4.5h-11v-3h11v3z"/></svg>

<svg xmlns="http://www.w3.org/2000/svg" enable-background="new 0 0 20 20" height="20" viewBox="0 0 20 20" width="20"><g><rect fill="none" height="20" width="20" y="0"/></g><g><g><path d="M15.5,3h-11C3.67,3,3,3.67,3,4.5v3C3,8.33,3.67,9,4.5,9h11C16.33,9,17,8.33,17,7.5v-3C17,3.67,16.33,3,15.5,3z M15.5,7.5 h-11v-3h11V7.5z"/><path d="M15.5,11h-11C3.67,11,3,11.67,3,12.5v3C3,16.33,3.67,17,4.5,17h11c0.83,0,1.5-0.67,1.5-1.5v-3C17,11.67,16.33,11,15.5,11z M15.5,15.5h-11v-3h11V15.5z"/></g></g></svg>
